X:008 
T:Ballina Lass* (reel), The
F:file ID: cre.5/008ball_L
B:CRE5.190 (gan ainm)
M:4/4
Q:180
R:reel
K:G
d2BG DGBd|egdg egge|dGBG DGBd|e2dc BGGB|
dG~G2 DGBd|egdg edge|d2BG DGBd|e2dc BGGd||
g2bg egde|g2bg agab|gabg egdB|dega bggd|
g2bg egde|g2bg agab|gabg egdB|dega bggd||
"last time"g8||

%%%

